Catalina-light/actions/16/view-continuous-symbolic.svg

<?xml version="1.0" encoding="UTF-8" standalone="no"?>
<svg
   xmlns:dc="http://purl.org/dc/elements/1.1/"
   xmlns:cc="http://creativecommons.org/ns#"
   xmlns:rdf="http://www.w3.org/1999/02/22-rdf-syntax-ns#"
   xmlns:svg="http://www.w3.org/2000/svg"
   xmlns="http://www.w3.org/2000/svg"
   xmlns:sodipodi="http://sodipodi.sourceforge.net/DTD/sodipodi-0.dtd"
   xmlns:inkscape="http://www.inkscape.org/namespaces/inkscape"
   viewBox="0 0 16 16"
   id="svg3255"
   version="1.1"
   inkscape:version="0.91 r13725"
   sodipodi:docname="view-continuous-symbolic.svg">
  <metadata
     id="metadata3265">
    <rdf:RDF>
      <cc:Work
         rdf:about="">
        <dc:format>image/svg+xml</dc:format>
        <dc:type
           rdf:resource="http://purl.org/dc/dcmitype/StillImage" />
      </cc:Work>
    </rdf:RDF>
  </metadata>
  <sodipodi:namedview
     pagecolor="#ffffff"
     bordercolor="#666666"
     borderopacity="1"
     objecttolerance="10"
     gridtolerance="10"
     guidetolerance="10"
     inkscape:pageopacity="0"
     inkscape:pageshadow="2"
     inkscape:window-width="640"
     inkscape:window-height="480"
     id="namedview3263"
     showgrid="false"
     inkscape:zoom="39.8125"
     inkscape:cx="3.5290424"
     inkscape:cy="8"
     inkscape:current-layer="svg3255" />
  <defs
     id="defs3051">
    <style
       type="text/css"
       id="current-color-scheme">
      .ColorScheme-Text {
        color:#bebebe;
      }
      </style>
  </defs>
  <g
     id="g3959">
    <path
       id="path3259"
       class="ColorScheme-Text"
       d="M 2 7.0039062 L 2 9 L 14 9 L 14 7.0039062 L 2 7.0039062 z "
       style="fill:currentColor;fill-opacity:1;stroke:none" />
    <path
       id="path3261"
       class="ColorScheme-Text"
       d="M 6 2.0039062 L 6 3.0039062 L 10 3.0039062 L 10 2.0039062 L 6 2.0039062 z M 4 4.0078125 L 4 6.0039062 L 12 6.0039062 L 12 4.0078125 L 4 4.0078125 z M 4 10.003906 L 4 12.005859 L 12 12.005859 L 12 10.003906 L 4 10.003906 z M 6 13.003906 L 6 14.003906 L 10 14.003906 L 10 13.003906 L 6 13.003906 z "
       style="fill:currentColor;fill-opacity:0.3;stroke:none" />
  </g>
</svg>

<svg version="1.1" viewBox="0 0 16 16" xmlns="http://www.w3.org/2000/svg">
<defs>
<style id="current-color-scheme" type="text/css">.ColorScheme-Text {
        color:#363636;
      }</style>
</defs>
<g fill="#363636">
<path class="ColorScheme-Text" d="m2 7.0039v1.9961h12v-1.9961h-12z"/>
<path class="ColorScheme-Text" d="m6 2.0039v1h4v-1h-4zm-2 2.0039v1.9961h8v-1.9961h-8zm0 5.9961v2.002h8v-2.002h-8zm2 3v1h4v-1h-4z" fill-opacity=".3"/>
</g>
</svg>
